X: 2087
T: Çayeli`nden Öteye
C: Dursun Tanyaş
O: Turkey
F: http://compmusic.upf.edu/node/140
N: hicaz--turku--devrihindi--cayelinden_oteye--rize
N: makam= hicaz
N: form= turku
N: usul= devrihindi = 7/4
M: 7/4
L: 1/16
K: C _7/8B ^f ^c 
Q: 1/4=240
%%MIDI tuningsystem comma53
=f2 e2 f2 e4 d4  | e4 =f2 f2 e2 d2 e2  | \
w:  Ça *  ye lin den   |  ö *  te *  ye   | 
cd3 d2 c4 B4  | d4 d2 d2 c2 B2 c2  | 
w:  gi *  de lum  yâ  |  li  *  yâ *  li   | 
B4 B2 A4 GF G2  | B4 B2 {B}A4 A4  | A4 A2 A4 A4  | \
w:  gi de lum  yâ  |  li  *  *  yâ li   |  gi de lum  yâ  | 
A4 z2 A4 A4  | =f2 e2 f2 ef e2 d4  | 
w:  li   SAZ  |  Sır *  tın da *  *  ki   | 
e=f e2 f2 f2 e2 d2 e2  | d4 d2 c4 B4  | \
w:  se *  *  *  pe *  tun   |  ben_ o la yım   | 
d4 d2 d2 c2 B2 c2  | B4 B2 A4 GF G2  | 
w:  ha *  ma *  li   |  ben_ o la yım   | 
B4 B2 {B}A4 A4  | A4 A2 A4 A4  | A4 z2 A4 A4  | \
w:  ha *  *  ma li   |  ben_ o la yım   |  ha   SAZ  | 
=f2 e2 f2 ef e2 d4  | e=f e2 f2 f2 e2 d2 e2  | 
w:  Sır *  tın da *  *  ki   |  se *  *  *  pe *  tun   | 
d4 d2 c4 B4  | d4 d2 d2 c2 B2 c2  | B4 B2 A4 GF G2  | \
w:  ben_ o la yım   |  ha *  ma *  li   |  ben_ o la yım   | 
B4 B2 {B}A4 A4  | A4 A2 A4 A4  | 
w:  ha *  *  ma li   |  ben_ o la yım   | 
A4 z2 A4 A4  | =f2 e2 f2 e4 d4  | e4 =f2 f2 e2 d2 e2  | \
w:  ha   SAZ  |  Ça *  ye lin den   |  ö *  te *  ye   | 
cd3 d2 c4 B4  | d4 d2 d2 c2 B2 c2  | 
w:  gi *  de lum  yâ  |  li  *  yâ *  li   | 
B4 B2 A4 GF G2  | B4 B2 {B}A4 A4  | A4 A2 A4 A4  | \
w:  gi de lum  yâ  |  li  *  *  yâ li   |  gi de lum  yâ  | 
A4 z2 A4 A4  | =f2 e2 f2 ef e2 d4  | 
w:  li   SAZ  |  Sır *  tın da *  *  ki   | 
e=f e2 f2 f2 e2 d2 e2  | d4 d2 c4 B4  | \
w:  se *  *  *  pe *  tun   |  ben_ o la yım   | 
d4 d2 d2 c2 B2 c2  | B4 B2 A4 GF G2  | 
w:  ha *  ma *  li   |  ben_ o la yım   | 
B4 B2 {B}A4 A4  | A4 A2 A4 A4  | A4 z2 A4 A4  | \
w:  ha *  *  ma li   |  ben_ o la yım   |  ha   SAZ  | 
=f2 e2 f2 ef e2 d4  | e=f e2 f2 f2 e2 d2 e2  | 
w:  Sır *  tın da *  *  ki   |  se *  *  *  pe *  tun   | 
d4 d2 c4 B4  | d4 d2 d2 c2 B2 c2  | B4 B2 A4 GF G2  | \
w:  ben_ o la yım   |  ha *  ma *  li   |  ben_ o la yım   | 
B4 B2 {B}A4 A4  | A4 A2 A4 A4  | 
w:  ha *  *  ma li   |  ben_ o la yım   | 
A4 z2 A4 A4  | |


